icon-svg/bridge.svg

<svg xmlns="http://www.w3.org/2000/svg" viewBox="0 0 24 24"><path fill="#44739e" d="M20.844 2.061H3.412a.95.95 0 0 0-.621.232l-.465.4A.95.95 0 0 0 2 3.412v17.367a1.16 1.16 0 0 0 1.16 1.16h17.492a.95.95 0 0 0 .716-.326l.4-.466a.94.94 0 0 0 .232-.62V3.221a1.16 1.16 0 0 0-1.156-1.16m-5.201.829h.927v.574h-.927ZM5.08 9.628h13.753v.355H5.08Zm12.033 3.194v.357h-1.094v.369h-.369V12.1h1.463v.368h-1.094v.357Zm-1.779 0v.357h-1.095v.369h-.369V12.1h1.464v.368h-1.095v.357Zm-1.768-.722v1.451h-1.464V12.1Zm-2.861.368v1.083h-.369V12.1h1.466v1.451h-.375v-1.086Zm-2.211-1.476.123-.1a.46.46 0 0 1 .107.327.45.45 0 0 1-.12.272l-.116-.094a.3.3 0 0 0 .074-.155.32.32 0 0 0-.068-.253Zm.074 1.108h1.464v1.451H8.568Zm.486-1.014a.86.86 0 0 1-.178.617l-.12-.09a.65.65 0 0 0 .159-.489.63.63 0 0 0-.162-.352l.113-.113a.8.8 0 0 1 .188.424Zm-.045-.534.116-.1a1.15 1.15 0 0 1 .01 1.465l-.113-.087a.96.96 0 0 0-.013-1.281Zm-.74 1.548v1.451H6.801v-.369h1.088v-.714H6.801V11h1.468v.368H7.175v.732Zm10.61 3.045H5.125v-.355h13.754Zm0-11.678h-.927V2.89h.927Zm-9.943 8.998h.727v.714h-.727Zm3.536 0h.726v.714h-.726Z"/></svg>

<?xml version="1.0" encoding="UTF-8"?>
<svg width="24px" fill="#44739e" height="24px" viewBox="0 0 24 24" version="1.1" xmlns="http://www.w3.org/2000/svg" xmlns:xlink="http://www.w3.org/1999/xlink">
            <path d="M 20.84,2.063 H 3.412 A 0.945,0.945 0 0 0 2.791,2.295 l -0.465,0.4 A 0.948,0.948 0 0 0 2,3.414 v 17.363 a 1.16,1.16 0 0 0 1.16,1.16 h 17.488 a 0.949,0.949 0 0 0 0.716,-0.326 l 0.4,-0.466 a 0.942,0.942 0 0 0 0.232,-0.62 V 3.223 A 1.16,1.16 0 0 0 20.84,2.063 Z m -5.2,0.829 h 0.927 V 3.466 H 15.64 Z M 5.079,9.628 H 18.83 V 9.983 H 5.079 Z m 12.031,3.194 v 0.357 h -1.094 v 0.369 H 15.647 V 12.1 h 1.463 v 0.368 h -1.094 v 0.357 z m -1.779,0 v 0.357 h -1.094 v 0.369 H 13.868 V 12.1 h 1.463 v 0.368 h -1.094 v 0.357 z M 13.564,12.1 v 1.451 H 12.1 V 12.1 Z m -2.861,0.368 v 1.083 H 10.334 V 12.1 H 11.8 v 1.451 h -0.375 v -1.086 z m -2.21,-1.476 0.123,-0.1 a 0.462,0.462 0 0 1 0.107,0.327 0.452,0.452 0 0 1 -0.12,0.272 L 8.487,11.397 A 0.307,0.307 0 0 0 8.561,11.242 0.323,0.323 0 0 0 8.493,10.989 Z M 8.567,12.1 h 1.463 v 1.451 H 8.567 Z m 0.486,-1.014 a 0.855,0.855 0 0 1 -0.178,0.617 l -0.12,-0.09 A 0.652,0.652 0 0 0 8.914,11.124 0.633,0.633 0 0 0 8.752,10.772 l 0.113,-0.113 a 0.821,0.821 0 0 1 0.188,0.424 z m -0.045,-0.534 0.116,-0.1 a 1.152,1.152 0 0 1 0.01,1.465 L 9.021,11.83 A 0.958,0.958 0 0 0 9.008,10.549 Z M 8.268,12.1 v 1.451 H 6.8 V 13.182 H 7.888 V 12.468 H 6.8 V 11 h 1.468 v 0.368 H 7.174 V 12.1 Z m 10.608,3.044 H 5.124 v -0.355 h 13.752 z m 0,-11.675 H 17.949 V 2.892 h 0.927 z m -9.9409996,8.996 h 0.726 v 0.714 h -0.726 z m 3.5349996,0 h 0.726 v 0.714 H 12.47 Z"/>

</svg>
